X:1
T:154 - Firme Nas Promessas
T:Letra: Russell Kelso Carter (1848-1928)
T:Trad.: Anônimo 
T:Música: Russell Kelso Carter (1848-1928) 
M:4/4
L: 1/8
Q:1/4=100
K:Bb 
V:1
"Bb"F3/2F/2 F3/2G/2 F3/2E/2 D3/2E/2 | F2 B2 B2 z2 | "Eb"G3/2G/2 G3/2A/2 B3/2B/2 A3/2G/2 | "Bb"G2 F2 F2 z2 | F3/2F/2 F3/2G/2 F3/2E/2 D3/2E/2 | F2 B2 B2 z2 | d3/2d/2 B3/2B/2 "Cm"c3/2c/2 "F7"A3/2A/2 | "Bb"B6 z2 || "Bb"d4 B4 | "Eb"G4 "Gm"B4| "F"c3/2c/2 c3/2c/2 c3/2c/2 B3/2c/2| "Bb"d2 B2 "(Eb)"G2 "(Bb)"B2| d4 B4 | "Eb"G4 He3 c| "Bb/F"B3/2B/2 B3/2c/2 d3/2d/2 "F7"c3/2c/2| "Bb"B6 z2 |]
w: 1.~Fir-me nas pro-mes-sas do meu Sal-va-dor, Can-ta-rei lou-vo-res ao meu Cri-a-dor. Fi-co, pe-los sé-cu-los do seu a-mor, Fir-me nas pro-mes-sas de Je-sus.     Fir-me, fir-me,    Fir-me nas pro-mes-sas de Je-sus, meu Mes-tre.    Fir-me, fir-me,                                                         Sim fir-me nas pro-mes-sas de Je-sus.
w: 2.~Fir-me nas pro-mes-sas não i-rei fa-lhar, Vin-doas tem-pes-ta-des a me cons-ter-nar. Pe-lo Ver-boE-ter-noeu hei de tra-ba-lhar, Fir-me nas pro-mes-sas de Je-sus. 
w: 3.~Fir-me nas pro-mes-sas, sem-pre ve-joas-sim Pu-ri-fi-ca-ção no san-gue pa-ra mim; Ple-na li-ber-da-de go-za-rei, sem fim, Fir-me nas pro-mes-sas de Je-sus.
w: 4.~Fir-me nas pro-mes-sas do Se-nhor Je-sus, Em a-mor li-ga-do com a su-a cruz, Ca-da di-a mais a-le-gro-me na luz, Fir-me nas pro-mes-sas de Je-sus.
W: 
W:
W: 1. Firme nas promessas do meu Salvador,
W: Cantarei louvores ao meu Criador.
W: Fico, pelos séculos do seu amor,
W: Firme nas promessas de Jesus.
W: 
W:    (Estribilho)
W:    Firme, firme,
W:    Firme nas promessas de Jesus, meu Mestre.
W:    Firme, firme,                                                     
W:    Sim firme nas promessas de Jesus.
W: 
W: 2. Firme nas promessas não irei falhar, 
W: Vindo as tempestades a me consternar. 
W: Pelo Verbo Eterno eu hei de trabalhar, 
W: Firme nas promessas de Jesus. 
W: 
W:
W:
W: 3. Firme nas promessas, sempre vejo assim
W: Purificação no sangue para mim;
W: Plena liberdade gozarei, sem fim,
W: Firme nas promessas de Jesus.
W: 
W: 4. Firme nas promessas do Senhor Jesus,
W: Em amor ligado com a sua cruz,
W: Cada dia mais alegro-me na luz,
W: Firme nas promessas de Jesus.
W:         
W: 





